EstimateCubeLUT/estimate.cube
LUT_3D_SIZE 5
0 0 0
-10.2054 4.76543 4.76543
-6.47026 3.17695 3.17695
-2.73513 1.58848 1.58848
1 0 0
0.104248 0.257184 0.133392
0.264724 0.328194 0.144647
0.487904 0.363158 0.181504
0.681019 0.417508 0.221417
0.868027 0.456579 0.255227
0.222787 0.513415 0.206802
0.422517 0.546413 0.240037
0.580276 0.572466 0.266066
0.778212 0.660752 0.318613
0.981229 0.739886 0.368429
0.411385 0.770796 0.411385
0.517772 0.800461 0.340859
0.714638 0.832973 0.373373
0.863307 0.863314 0.399993
1.02129 0.902756 0.294722
1.57333e-06 1 1.57333e-06
0.184665 1.0305 0.0304978
0.872658 1.09751 0.484625
1.00749 1.11972 0.506874
1 1 0
0.038257 0.0427575 0.178057
0.172381 0.0815152 0.206641
0.379695 0.0732951 0.262071
0.563988 0.104388 0.304873
0.747793 0.134994 0.339908
0.0902166 0.325841 0.283583
0.313636 0.274498 0.291313
0.477764 0.320359 0.343975
0.694883 0.43222 0.433496
0.881999 0.471161 0.471138
0.25491 0.527351 0.37464
0.368338 0.547701 0.423815
0.604494 0.590623 0.45239
0.78927 0.669861 0.513527
0.991033 0.743903 0.581404
0.319331 0.778925 0.519769
0.538654 0.814265 0.539287
0.725328 0.844851 0.565513
0.898049 0.899751 0.615603
1.08148 0.964238 0.670005
0.421608 1.03441 0.62689
0.68113 1.07728 0.669853
0.859778 1.10691 0.701803
1.01984 1.13557 0.72476
1.15879 1.15595 0.744662
0.0205845 0.0205845 0.326985
0.240882 0.0569672 0.363367
0.39491 0.0827805 0.395873
0.573477 0.113876 0.455536
0.75874 0.145939 0.513786
0.146963 0.336878 0.453367
0.314169 0.287546 0.453501
0.440983 0.3391 0.485377
0.692826 0.413317 0.567456
0.898741 0.496536 0.651608
0.229207 0.542062 0.541848
0.974068 2.07721 0.197617
0.631958 0.604344 0.63287
0.816248 0.676741 0.694516
1.00212 0.754789 0.755121
0.318495 0.763458 0.651515
0.544028 0.823769 0.702471
0.751225 0.860865 0.751678
0.936344 0.93569 0.812442
1.09607 0.99032 0.848926
0.432358 1.04516 0.797674
0.688431 1.08747 0.840343
0.870493 1.11739 0.870486
1.03053 1.17102 0.906503
1.19027 1.22566 0.942999
0.0912216 0.0912216 -0.0167277
0.242789 0.0658747 0.525474
0.395793 0.0893929 0.51777
0.581615 0.122015 0.584854
0.767632 0.154836 0.655043
0.163706 0.363301 0.623307
0.40761 0.436056 0.675185
0.568276 0.418439 0.692778
0.724922 0.439539 0.726322
0.963318 0.556921 0.838352
0.251912 0.585343 0.69868
0.471387 0.632009 0.751944
0.692816 0.707427 0.833095
0.868035 0.739992 0.861998
1.01075 0.763383 0.89691
0.340843 0.806009 0.806392
0.601535 0.890568 0.897015
0.79743 0.92161 0.925035
1.44189 2.28027 0.625244
2.63867 5.14648 -0.0419922
0.441341 1.05414 0.94037
0.683172 1.09413 0.978388
0.880501 1.12991 1.0108
2.56641 5.30273 0.0214844
1.1753 1.17538 1.05972
3.46477e-09 3.46477e-09 1
0.172753 0.021685 1.09882
0.480568 0.113736 0.726539
0.919279 -0.108593 1.03761
1 -2.43089e-08 1
0.200707 0.440416 0.813497
0.534785 0.629201 0.916392
0.608008 0.432724 0.844747
0.829845 0.542313 0.942463
0.913613 0.49722 0.909483
0.286949 0.656261 0.899746
0.526401 0.690104 0.937256
0.722479 0.722612 0.969684
0.876418 0.747862 1.00019
1.01912 0.77125 1.0351
0.371688 0.868339 0.984489
0.61398 0.909297 1.02484
0.810016 0.941615 1.05812
2.4834 5.08398 0.0742188
1.10628 0.990862 1.10734
-1.14417e-07 1 1
0.688159 1.09385 1.09385
0.887024 1.13416 1.13467
1.04509 1.16144 1.16137
1 1 1
