EstimateCubeLUT/estimate.cube
LUT_3D_SIZE 9
0 0 0
0.0906198 0.0127588 0.00963277
-10.2054 4.76543 4.76543
-8.33782 3.97119 3.97119
-6.47026 3.17695 3.17695
-4.60269 2.38272 2.38272
-2.73513 1.58848 1.58848
-0.867564 0.794239 0.794239
1 0 0
0.0351479 0.0880143 0.0349975
0.135315 0.124311 0.0581871
0.194097 0.231704 0.102311
0.347546 0.22636 0.117745
0.433642 0.227359 0.127255
0.526032 0.244105 0.143032
0.615275 0.252978 0.155675
-0.285409 0.532721 0.53078
0.493341 0.233115 0.232004
0.104248 0.257184 0.133392
0.203888 0.27246 0.127647
0.264724 0.328194 0.144647
0.387176 0.32521 0.160686
0.487904 0.363158 0.181504
0.586043 0.394293 0.203043
0.681019 0.417508 0.221417
0.774988 0.438209 0.238787
0.868027 0.456579 0.255227
0.0859752 0.377439 0.25043
0.272233 0.402434 0.172634
0.355247 0.416261 0.188539
0.442514 0.430553 0.200765
0.534039 0.478616 0.227639
0.634328 0.515132 0.251329
0.734618 0.551648 0.275018
0.834908 0.588164 0.298708
0.93886 0.633853 0.32606
0.222787 0.513415 0.206802
0.322616 0.529914 0.223513
0.422517 0.546413 0.240037
0.505556 0.560125 0.253732
0.580276 0.572466 0.266066
0.677924 0.624236 0.294923
0.778212 0.660752 0.318613
0.878502 0.697268 0.342302
0.981229 0.739886 0.368429
0.254884 0.637885 0.254884
0.372998 0.657392 0.274392
0.481671 0.675339 0.292339
0.568597 0.689694 0.3067
0.647457 0.702719 0.319719
0.714043 0.714633 0.331045
0.796102 0.740104 0.348854
0.847449 0.735691 0.352727
1.0236 0.845918 0.410797
0.411385 0.770796 0.411385
0.423381 0.784871 0.32527
0.517772 0.800461 0.340859
0.631638 0.819264 0.359667
0.714638 0.832973 0.373373
0.781041 0.836713 0.381758
0.863307 0.863314 0.399993
0.923266 0.867401 0.407818
1.02129 0.902756 0.294722
0.205692 0.885398 0.205692
0.469295 0.911614 0.375411
0.577774 0.929527 0.393326
0.694679 0.948834 0.412635
0.796843 0.965799 0.429534
0.864256 0.976902 0.44066
0.93167 0.988009 0.451784
0.999082 0.999112 0.462908
1.01064 0.951378 0.147361
1.57333e-06 1 1.57333e-06
0.508199 1.03719 0.424394
0.184665 1.0305 0.0304978
0.755382 1.07802 0.465218
0.872658 1.09751 0.484625
0.940075 1.10862 0.49575
1.00749 1.11972 0.506874
1.0749 1.13082 0.517999
1 1 0
-0.0112477 -0.0359252 0.0661459
0.0889197 0.000372123 0.0893355
0.147926 0.108366 0.133309
0.286734 0.0638345 0.159369
0.374152 0.0684388 0.167195
0.464018 0.0810165 0.159166
0.554221 0.0946198 0.149693
0.644424 0.108223 0.14022
0.871242 0.0685636 0.169554
0.0472321 0.110002 0.126568
0.1474 0.146299 0.149757
0.218553 0.204854 0.175644
0.33833 0.194725 0.193479
0.440245 0.23385 0.233262
0.530404 0.245032 0.246628
0.622936 0.262189 0.262007
0.715965 0.280446 0.279326
0.808996 0.298705 0.296648
0.108444 0.261426 0.200931
0.208084 0.276701 0.195186
0.28918 0.301346 0.217979
0.389925 0.325615 0.227589
0.482785 0.341636 0.262692
0.581415 0.373029 0.294367
0.689674 0.428753 0.333473
0.782927 0.445607 0.370251
0.874161 0.463323 0.346642
0.154603 0.384402 0.179452
0.261048 0.405382 0.261075
0.336273 0.417734 0.272143
0.432526 0.4312 0.280083
0.531529 0.465612 0.29174
0.631518 0.498727 0.341391
0.737855 0.549698 0.377839
0.832791 0.572914 0.39521
0.927724 0.59613 0.412579
0.214559 0.517608 0.310003
0.317934 0.534683 0.327118
0.408968 0.548779 0.324476
0.465682 0.558954 0.349064
0.591555 0.586587 0.361628
0.680862 0.622838 0.3846
0.783252 0.663842 0.417948
0.885614 0.704184 0.457139
0.983697 0.736265 0.467939
0.259113 0.642113 0.322029
0.375703 0.663371 0.379027
0.468167 0.678142 0.384882
0.563612 0.69385 0.399624
0.652579 0.708296 0.409645
0.737911 0.738573 0.440032
0.848202 0.785289 0.494835
0.958487 0.832001 0.549632
1.06878 0.878716 0.604433
0.311368 0.770968 0.393318
0.443966 0.793942 0.435428
0.545899 0.810741 0.451634
0.638191 0.825868 0.464705
0.719802 0.839325 0.477789
0.790923 0.850759 0.483683
0.88271 0.882673 0.510148
0.970209 0.91437 0.55687
1.06956 0.952465 0.540755
0.364767 0.900963 0.482741
0.520123 0.925087 0.479498
0.608576 0.942249 0.542055
0.702326 0.957413 0.551439
0.787027 0.970355 0.545935
0.863346 0.982638 0.552498
0.943605 1.00058 0.564726
1.03532 1.03283 0.591926
1.12704 1.06507 0.619125
0.415906 1.02871 0.536301
0.515697 1.04322 0.515697
0.655235 1.06626 0.538743
0.760789 1.08369 0.556174
0.854254 1.10139 0.614082
0.935774 1.11452 0.621316
1.0045 1.11849 0.619303
1.08029 1.13651 0.609859
1.14787 1.14894 0.614343
0.038257 0.0427575 0.178057
0.120006 0.0348137 0.183899
0.172381 0.0815152 0.206641
0.289484 0.0642397 0.226272
0.379695 0.0732951 0.262071
0.471811 0.0888109 0.282973
0.563988 0.104388 0.304873
0.65589 0.119691 0.322391
0.747793 0.134994 0.339908
0.0745702 0.159231 0.223511
0.156319 0.151287 0.229353
0.243009 0.178007 0.248977
0.341079 0.19513 0.260382
0.431149 0.203697 0.297359
0.534337 0.247269 0.32597
0.630701 0.271713 0.368033
0.722918 0.287763 0.386163
0.815133 0.303812 0.404294
0.0902166 0.325841 0.283583
0.201926 0.30017 0.287448
0.313636 0.274498 0.291313
0.392675 0.326021 0.294492
0.477764 0.320359 0.343975
0.584442 0.372968 0.372996
0.694883 0.43222 0.433496
0.788441 0.451691 0.452317
0.881999 0.471161 0.471138
0.158829 0.393574 0.339739
0.297475 0.41345 0.305729
0.3173 0.419206 0.355747
0.422356 0.39788 0.347867
0.535396 0.469449 0.353439
0.634544 0.498667 0.420022
0.748714 0.566688 0.489552
0.843648 0.589904 0.506922
0.938584 0.613121 0.524291
0.25491 0.527351 0.37464
0.311624 0.537526 0.399228
0.368338 0.547701 0.423815
0.425052 0.557876 0.448404
0.604494 0.590623 0.45239
0.685866 0.627843 0.464128
0.78927 0.669861 0.513527
0.89015 0.706881 0.547463
0.991033 0.743903 0.581404
0.267106 0.650103 0.448995
0.371968 0.66705 0.459263
0.467413 0.682757 0.474004
0.562856 0.698466 0.488743
0.658102 0.713821 0.497369
0.735657 0.738852 0.511105
0.845947 0.785567 0.565907
0.956236 0.83228 0.620708
1.06652 0.878993 0.675501
0.319331 0.778925 0.519769
0.443206 0.798556 0.524544
0.538654 0.814265 0.539287
0.642197 0.832051 0.569325
0.725328 0.844851 0.565513
0.796673 0.856509 0.575005
0.898049 0.899751 0.615603
0.989765 0.931995 0.642804
1.08148 0.964238 0.670005
0.370469 0.906666 0.573329
0.495389 0.927047 0.589181
0.609896 0.945769 0.60457
0.706223 0.961783 0.622458
0.792553 0.975878 0.633658
0.869098 0.988387 0.643819
0.958945 1.01766 0.670182
1.04805 1.04936 0.695495
1.11854 1.06099 0.706801
0.421608 1.03441 0.62689
0.529194 1.0523 0.646912
0.68113 1.07728 0.669853
0.77025 1.09152 0.67559
0.859778 1.10691 0.701803
0.94152 1.12027 0.712634
1.01984 1.13557 0.72476
1.08831 1.14432 0.733355
1.15879 1.15595 0.744662
0.050058 0.0213772 0.251035
0.135419 0.0355082 0.265145
0.220126 0.0495067 0.279137
0.305029 0.063264 0.293072
0.384147 0.0777453 0.332755
0.476781 0.0937802 0.361907
0.569407 0.109806 0.390878
0.662318 0.126117 0.424419
0.753615 0.140815 0.432387
0.0836445 0.186132 0.313444
0.171943 0.185297 0.32252
0.248387 0.186957 0.331229
0.339274 0.182089 0.342689
0.435603 0.209359 0.356141
0.537365 0.24721 0.404602
0.63522 0.276434 0.437681
0.72843 0.293215 0.474305
0.821634 0.309993 0.510927
0.129322 0.300024 0.358971
0.202985 0.312216 0.371146
0.276649 0.324407 0.383321
0.375729 0.273325 0.37917
0.487433 0.341323 0.385639
0.587468 0.372908 0.451628
0.689451 0.411376 0.499599
0.791154 0.450097 0.537881
0.887908 0.477069 0.565003
0.17339 0.410076 0.40971
0.270858 0.43705 0.415573
0.369781 0.467775 0.424832
0.412186 0.364561 0.415652
0.539262 0.473286 0.415138
0.637572 0.498606 0.498653
0.741305 0.542091 0.542166
0.84504 0.585577 0.58568
0.94877 0.62906 0.62919
0.218033 0.520774 0.464544
0.301675 0.539864 0.472549
0.371315 0.551365 0.484034
0.440955 0.562867 0.495519
0.617433 0.594658 0.543151
0.69087 0.632849 0.543657
0.792905 0.671847 0.587712
0.89494 0.710847 0.631768
0.996974 0.749847 0.675825
0.262677 0.631472 0.519377
0.371213 0.671664 0.548385
0.466658 0.687374 0.563126
0.562108 0.703085 0.577866
0.662727 0.718727 0.57621
0.733405 0.739132 0.582178
0.843697 0.785847 0.636982
0.953983 0.832561 0.691781
1.06427 0.879273 0.74658
0.307321 0.74217 0.574211
0.435841 0.80219 0.614699
0.53432 0.818461 0.63117
0.633344 0.834581 0.643146
0.730415 0.849991 0.647343
0.811527 0.875103 0.665581
0.942257 0.924435 0.729996
1.0132 0.947454 0.746056
1.08414 0.970453 0.762118
0.37558 0.911779 0.65452
0.496655 0.931922 0.677292
0.605188 0.949815 0.694623
0.704585 0.966092 0.70843
0.798105 0.981249 0.718473
0.889653 1.01107 0.748987
0.982204 1.03292 0.773285
1.05314 1.05592 0.789348
1.12409 1.07893 0.805414
0.427749 1.04055 0.724463
0.548868 1.06018 0.737597
0.67606 1.08117 0.758073
0.775825 1.0976 0.773713
0.865795 1.11251 0.789607
0.967777 1.14704 0.832391
1.02214 1.14138 0.816579
1.09307 1.16438 0.832636
1.16401 1.1874 0.848717
0.0205845 0.0205845 0.326985
0.148619 0.0842091 0.363301
0.240882 0.0569672 0.363367
0.322239 0.0704028 0.376809
0.39491 0.0827805 0.395873
0.479621 0.0975149 0.423862
0.573477 0.113876 0.455536
0.666388 0.130187 0.489078
0.75874 0.145939 0.513786
0.107734 0.238717 0.414143
0.191337 0.214051 0.41421
0.27494 0.189385 0.414277
0.358543 0.164719 0.414344
0.414231 0.210483 0.436601
0.537092 0.23963 0.472601
0.64005 0.28124 0.514678
0.752761 0.346805 0.570963
0.815347 0.287829 0.56822
0.146963 0.336878 0.453367
0.230566 0.312212 0.453434
0.314169 0.287546 0.453501
0.397772 0.26288 0.453568
0.440983 0.3391 0.485377
0.589865 0.371706 0.525377
0.692826 0.413317 0.567456
0.795784 0.454926 0.609533
0.898741 0.496536 0.651608
0.186193 0.435039 0.492591
0.269796 0.410372 0.492658
0.353399 0.385707 0.492726
0.437001 0.36104 0.492793
0.467735 0.467716 0.534153
0.642639 0.503784 0.578163
0.745596 0.545391 0.620232
0.848557 0.587002 0.662312
0.951518 0.628613 0.704388
0.229207 0.542062 0.541848
0.634762 1.40535 0.342903
0.974068 2.07721 0.197617
1.31335 2.74902 0.0522461
0.631958 0.604344 0.63287
0.72331 0.637717 0.664214
0.816248 0.676741 0.694516
0.909186 0.715765 0.724818
1.00212 0.754789 0.755121
0.273851 0.65276 0.596681
0.379875 0.676735 0.61835
0.471828 0.691917 0.633537
0.563782 0.7071 0.64872
0.691592 0.732605 0.692274
0.809384 0.790703 0.747166
0.889249 0.818024 0.76541
0.969114 0.845341 0.783653
1.04898 0.872658 0.801896
0.318495 0.763458 0.651515
0.452073 0.808584 0.687284
0.544028 0.823769 0.702471
0.635983 0.838951 0.717655
0.751225 0.860865 0.751678
0.856477 0.908374 0.7942
0.936344 0.93569 0.812442
1.01621 0.963008 0.830684
1.09607 0.99032 0.848926
0.382015 0.918218 0.756789
0.524277 0.940437 0.756222
0.616229 0.95562 0.771406
0.708182 0.970804 0.786592
0.810859 0.989125 0.811082
0.903574 1.02604 0.84123
0.983439 1.05336 0.859473
1.0633 1.08067 0.877716
1.14317 1.10799 0.895961
0.432358 1.04516 0.797674
0.596478 1.0723 0.825157
0.688431 1.08747 0.840343
0.780384 1.10266 0.855527
0.870493 1.11739 0.870486
0.950669 1.1437 0.888262
1.03053 1.17102 0.906503
1.1104 1.19834 0.924749
1.19027 1.22566 0.942999
0.136832 0.136832 -0.525092
0.143998 0.0452629 0.428263
0.2544 0.0634964 0.446496
0.339447 0.0775414 0.460546
0.418126 0.0905266 0.473326
0.491801 0.103021 0.491678
0.577546 0.117945 0.520195
0.670457 0.134256 0.553737
0.763243 0.150443 0.585319
0.0934299 0.195158 0.476431
0.203707 0.204712 0.49155
0.304042 0.191462 0.49747
0.382942 0.209441 0.512269
0.481593 0.25061 0.544325
0.544727 0.243771 0.544342
0.633811 0.266941 0.576495
0.753006 0.32563 0.632508
0.8722 0.384317 0.688522
0.156475 0.352937 0.539475
0.253171 0.331428 0.542059
0.353505 0.318178 0.547978
0.402972 0.282198 0.540381
0.548411 0.411297 0.616794
0.599422 0.380663 0.598862
0.672462 0.388151 0.618252
0.791655 0.446843 0.674265
0.910851 0.505529 0.730277
0.195737 0.452652 0.564319
0.305103 0.469527 0.596896
0.364053 0.412242 0.582695
0.423002 0.354956 0.568495
0.615228 0.571984 0.689262
0.706039 0.56345 0.695244
0.787828 0.585265 0.72159
0.869612 0.607077 0.747938
0.951398 0.62889 0.774285
0.240381 0.56335 0.619152
0.34197 0.586113 0.64245
0.440435 0.602374 0.658713
0.525101 0.600529 0.667046
0.677989 0.699838 0.76481
0.785633 0.721855 0.76722
0.859278 0.734362 0.787785
0.932925 0.746871 0.808353
1.00657 0.75938 0.828924
0.285025 0.674048 0.673986
0.407817 0.718808 0.707136
0.530643 0.763248 0.740298
0.653467 0.807682 0.77346
0.729768 0.806136 0.808291
-0.239258 -2.06445 1.53711
0.358398 -0.632324 1.20361
0.956696 0.8004 0.869644
1.55469 2.23291 0.535889
0.329668 0.784746 0.728819
0.44385 0.810751 0.752285
0.551129 0.828479 0.770037
0.696866 0.907306 0.824984
0.781549 0.912433 0.851778
0.321777 -0.554688 1.23438
0.948763 0.941801 0.886583
1.02153 0.960413 0.901081
1.09429 0.979022 0.915574
0.385021 0.921221 0.804514
0.508455 0.941498 0.822866
0.615734 0.959219 0.840616
0.740266 1.00693 0.876508
0.833328 1.01873 0.895264
0.883972 0.955704 0.931808
0.990447 1.04611 0.928391
1.06367 1.06485 0.94295
1.13417 1.07649 0.954592
0.436962 1.04976 0.870802
0.573061 1.07224 0.893445
0.68034 1.08997 0.911195
0.783665 1.10655 0.928033
0.88511 1.12503 0.938751
1.44531 2.46582 0.62915
1.03213 1.15041 0.970199
1.10391 1.15992 0.981178
1.17121 1.17104 0.992405
0.0912216 0.0912216 -0.0167277
0.149922 0.0505374 0.510137
0.242789 0.0658747 0.525474
0.356656 0.0846801 0.544283
0.395793 0.0893929 0.51777
0.488704 0.105704 0.551312
0.581615 0.122015 0.584854
0.674526 0.138326 0.618396
0.767632 0.154836 0.655043
0.0983226 0.199671 0.557924
0.215696 0.217301 0.57668
0.330379 0.236673 0.595775
0.42417 0.242964 0.607979
0.501459 0.257752 0.620309
0.571469 0.264488 0.631309
0.686274 0.318328 0.684566
0.80547 0.377016 0.740578
0.924667 0.435703 0.796589
0.163706 0.363301 0.623307
0.34866 0.493342 0.689386
0.40761 0.436056 0.675185
0.490765 0.392916 0.668602
0.568276 0.418439 0.692778
0.628779 0.407906 0.688622
0.724922 0.439539 0.726322
0.844118 0.498229 0.782337
0.963318 0.556921 0.838352
0.207446 0.475008 0.644823
0.325913 0.504308 0.690887
0.433191 0.522026 0.708603
0.48659 0.451529 0.689098
0.635094 0.579126 0.765247
0.719612 0.577435 0.774126
0.801398 0.599249 0.800475
0.883185 0.621061 0.826823
0.96497 0.642876 0.85317
0.251912 0.585343 0.69868
0.372927 0.61575 0.735682
0.471387 0.632009 0.751944
0.560833 0.637059 0.763244
0.692816 0.707427 0.833095
0.79023 0.726393 0.840879
0.868035 0.739992 0.861998
0.939391 0.751687 0.879455
1.01075 0.763383 0.89691
0.296377 0.695676 0.752536
0.417939 0.716665 0.776503
0.516085 0.734863 0.793411
0.687497 0.82559 0.871456
0.744597 0.813725 0.876584
0.281738 -0.662109 1.26123
0.879944 0.770142 0.927856
1.47852 2.20264 0.594238
2.07617 3.63525 0.260254
0.340843 0.806009 0.806392
0.54763 1.05758 0.763889
0.601535 0.890568 0.897015
0.699767 0.90192 0.899819
0.79743 0.92161 0.925035
0.880045 0.937083 0.943221
1.44189 2.28027 0.625244
2.04004 3.71338 0.291992
2.63867 5.14648 -0.0419922
0.385376 0.916499 0.860429
0.539361 0.950026 0.892479
0.642354 0.992352 0.937704
0.712037 0.978248 0.928182
0.838966 1.02576 0.967917
0.920616 1.03855 0.983767
2.00293 3.79004 0.322754
1.06772 1.06732 1.00974
1.13872 1.08382 1.02321
0.441341 1.05414 0.94037
0.543375 1.07089 0.955366
0.683172 1.09413 0.978388
0.724309 1.05458 0.95655
0.880501 1.12991 1.0108
0.961189 1.14001 1.02431
2.56641 5.30273 0.0214844
1.10807 1.16831 1.05014
1.1753 1.17538 1.05972
0.0456108 0.0456108 0.491636
0.164091 0.0571738 0.593374
0.256958 0.0725112 0.608711
0.373864 0.0918188 0.62802
0.461257 0.106252 0.642452
0.514684 0.113689 0.625145
0.59718 0.128037 0.652404
0.679675 0.142385 0.679663
0.771433 0.158634 0.715409
0.20817 0.466862 0.744378
0.392218 0.517156 0.781876
0.347804 0.258019 0.684609
0.439382 0.264817 0.696763
0.521325 0.264895 0.696294
0.605798 0.294666 0.725087
0.738735 0.369715 0.792637
0.857925 0.428402 0.848656
0.977119 0.487083 0.904655
0.185453 0.409966 0.721641
0.292811 0.391198 0.726339
0.471197 0.532629 0.795789
0.505974 0.414772 0.757387
0.588142 0.425582 0.768762
0.663107 0.438084 0.782399
0.777388 0.490928 0.834396
0.836372 0.483662 0.837061
0.907372 0.494143 0.848347
0.228573 0.517888 0.764765
0.348048 0.525387 0.78013
0.455323 0.543102 0.797842
0.550177 0.548101 0.809702
0.65496 0.586269 0.841231
0.733184 0.591421 0.853013
0.81497 0.613233 0.879359
0.896755 0.635042 0.905708
0.978546 0.65686 0.932056
0.271694 0.625812 0.807889
0.392393 0.645498 0.827736
0.511784 0.66536 0.847505
0.59657 0.673594 0.859447
0.707649 0.71502 0.90139
0.794826 0.730929 0.91455
0.872227 0.743927 0.931098
0.943583 0.755622 0.948552
1.01493 0.767315 0.966002
0.314815 0.733733 0.851013
0.434957 0.751564 0.870137
0.544741 0.769571 0.888218
0.663532 0.805122 0.924146
0.759429 0.821318 0.944877
0.803192 0.739868 0.986084
1.40186 2.17261 0.652588
0.991993 0.870337 0.990617
1.06022 0.881308 1.00463
0.355327 0.835124 0.891526
0.47929 0.854769 0.911704
0.607759 0.899937 0.96093
0.675802 0.88145 0.952511
0.803723 0.931612 0.991578
0.886027 0.946147 1.00699
1.96289 3.68213 0.349121
2.56055 5.11426 0.015625
3.1582 6.54688 -0.318359
0.393394 0.930394 0.929594
0.526815 0.965104 0.964811
0.650992 1.00828 1.00828
0.688074 0.957779 0.980874
0.844638 1.03351 1.03491
0.9266 1.04761 1.04754
1.00291 1.06134 1.06154
3.12305 6.625 -0.286133
3.72266 8.05664 -0.619141
0.445173 1.05797 1.00124
0.547149 1.08348 1.02691
0.686508 1.0963 1.0397
0.700348 1.0341 1.00924
0.883551 1.1315 1.07404
0.967175 1.14908 1.08808
1.04084 1.15637 1.10015
3.68359 8.13477 -0.589844
4.28125 9.56445 -0.923828
3.46477e-09 3.46477e-09 1
0.142121 0.0578418 0.670642
0.172753 0.021685 1.09882
0.259129 0.0325273 1.14823
0.480568 0.113736 0.726539
0.560938 0.127174 0.7429
0.919279 -0.108593 1.03761
0.95964 -0.0542967 1.0188
1 -2.43089e-08 1
0.0926949 0.170119 0.705495
0.455805 0.613728 0.902479
0.342866 0.230738 0.753708
0.454592 0.286673 0.785549
0.541191 0.272037 0.772278
0.640128 0.324843 0.81887
0.791206 0.421101 0.900707
0.910393 0.47979 0.956718
1.02959 0.538483 1.01273
0.200707 0.440416 0.813497
0.28881 0.393578 0.806127
0.534785 0.629201 0.916392
0.521185 0.436625 0.846173
0.608008 0.432724 0.844747
0.697437 0.468261 0.876178
0.829845 0.542313 0.942463
0.842612 0.486741 0.898198
0.913613 0.49722 0.909483
0.243828 0.548338 0.856621
0.37018 0.546461 0.86937
0.477459 0.564182 0.887088
0.613764 0.644673 0.930305
0.674826 0.593411 0.917215
0.746758 0.605406 0.931898
0.828541 0.627216 0.958246
0.910332 0.649029 0.984592
0.992111 0.670837 1.01094
0.286949 0.656261 0.899746
0.407011 0.670247 0.917489
0.526401 0.690104 0.937256
0.63231 0.710127 0.955652
0.722479 0.722612 0.969684
0.799423 0.735466 0.988216
0.876418 0.747862 1.00019
0.94777 0.759555 1.01765
1.01912 0.77125 1.0351
0.33007 0.764184 0.94287
0.451974 0.786463 0.96377
0.573397 0.804282 0.983027
0.639565 0.784651 0.97684
0.77426 0.828909 1.01317
1.32471 2.14209 0.710693
1.92285 3.57471 0.376953
0.995823 0.873894 1.05416
1.06405 0.884865 1.06818
0.371688 0.868339 0.984489
0.484995 0.888681 1.00378
0.61398 0.909297 1.02484
0.651835 0.860978 1.0052
0.810016 0.941615 1.05812
0.892012 0.955213 1.07076
2.4834 5.08398 0.0742188
3.08398 6.5166 -0.258789
1.10628 0.990862 1.10734
0.411395 0.967711 1.0242
0.513218 0.99284 1.04969
0.652643 1.00584 1.06244
0.66411 0.93731 1.03356
0.849606 1.04082 1.09683
0.932586 1.05668 1.11131
1.00717 1.06641 1.12276
3.64648 8.0293 -0.5625
4.24414 9.46094 -0.894531
-1.14417e-07 1 1
0.53355 1.11121 1.11179
0.688159 1.09385 1.09385
0.676379 1.01364 1.06193
0.887024 1.13416 1.13467
0.973159 1.15815 1.15185
1.04509 1.16144 1.16137
1.11588 1.17181 1.1718
1 1 1
