EstimateCubeLUT/estimate.cube
LUT_3D_SIZE 33
0 0 0
0.025973 0.0113698 0.00681821
0.0267515 -0.0397646 -0.0138294
0.0517934 -0.0306901 -0.00803199
0.0906198 0.0127588 0.00963277
0.114424 0.0187527 0.0139153
0.126919 -0.00346699 0.00936023
0.151961 0.00560724 0.0151576
-10.2054 4.76543 4.76543
-9.73849 4.56687 4.56687
-9.2716 4.36831 4.36831
-8.80471 4.16975 4.16975
-8.33782 3.97119 3.97119
-7.87093 3.77263 3.77263
-7.40404 3.57407 3.57407
-6.93715 3.37551 3.37551
-6.47026 3.17695 3.17695
-6.00337 2.9784 2.9784
-5.53648 2.77984 2.77984
-5.06958 2.58128 2.58128
-4.60269 2.38272 2.38272
-4.1358 2.18416 2.18416
-3.66891 1.9856 1.9856
-3.20202 1.78704 1.78704
-2.73513 1.58848 1.58848
-2.26823 1.38992 1.38992
-1.80135 1.19136 1.19136
-1.33445 0.992798 0.992798
-0.867564 0.794239 0.794239
-0.400671 0.595678 0.595678
0.0662182 0.397119 0.397119
0.53311 0.198559 0.198559
1 0 0
0.0155718 0.0389678 0.0155707
0.0415448 0.0503375 0.0223889
0.0413715 -0.00328265 0.00127599
0.0664133 0.00579182 0.0070734
0.0914552 0.014866 0.0128708
0.116497 0.0239404 0.0186683
0.141539 0.0330148 0.0244657
0.166581 0.042089 0.0302631
0.203975 0.0815032 0.051057
0.169054 0.152917 0.0715254
0.266769 0.131425 0.0754904
-0.393961 0.553478 0.443134
0.198399 -0.146897 -0.0314016
0.227132 -0.128607 -0.0218189
0.255864 -0.110318 -0.0122364
0.284597 -0.0920289 -0.00265372
0.313329 -0.0737396 0.00692883
0.342062 -0.0554503 0.0165115
0.370794 -0.0371611 0.026094
0.399527 -0.0188719 0.0356766
0.428259 -0.000582561 0.0452593
0.456992 0.0177066 0.0548418
0.485725 0.0359959 0.0644244
0.514457 0.0542852 0.0740071
0.54319 0.0725745 0.0835897
0.571922 0.0908637 0.0931722
0.600655 0.109153 0.102755
0.668407 0.168053 0.123287
0.734807 0.143964 0.103296
0.801205 0.119875 0.0833057
0.867603 0.0957863 0.0633153
0.934001 0.0716973 0.0433248
1.0004 0.0476083 0.0233344
0.00590792 0.0150506 0.00478663
0.0309497 0.0241249 0.010584
0.0559916 0.0331993 0.0163814
0.0810334 0.0422736 0.0221788
0.106075 0.0513479 0.0279763
0.131117 0.0604223 0.0337737
0.156159 0.0694965 0.0395711
0.181201 0.0785709 0.0453685
0.217859 0.116247 0.0649444
0.18671 0.177039 0.0821089
0.276904 0.156789 0.0856251
-0.393566 0.601087 0.466468
0.209603 -0.118856 -0.0201969
0.238336 -0.100566 -0.0106143
0.267069 -0.082277 -0.00103173
0.295801 -0.0639876 0.00855097
0.324534 -0.0456984 0.0181335
0.353266 -0.0274091 0.0277161
0.381999 -0.00911984 0.0372987
0.410732 0.0091694 0.0468814
0.439464 0.0274586 0.0564639
0.468197 0.0457479 0.0660465
0.496929 0.0640371 0.0756291
0.525662 0.0823263 0.0852117
0.554394 0.100616 0.0947943
0.583127 0.118905 0.104377
0.611859 0.137194 0.113959
0.668806 0.215662 0.146621
0.735204 0.191573 0.126631
0.801604 0.167484 0.10664
0.868002 0.143395 0.0866497
0.9344 0.119306 0.0666593
1.0008 0.0952166 0.0466688
0.0205278 0.0515324 0.019892
0.0455696 0.0606066 0.0256894
0.0706116 0.0696811 0.0314869
0.0956533 0.0787553 0.0372843
0.120695 0.0878296 0.0430817
0.145737 0.096904 0.0488791
0.170779 0.105978 0.0546765
0.195821 0.115053 0.0604739
0.231742 0.150992 0.0788317
0.204367 0.201162 0.0926924
0.287039 0.182152 0.0957597
-0.393171 0.648694 0.489802
0.220808 -0.0908142 -0.0089922
0.249541 -0.072525 0.000590354
0.278273 -0.0542357 0.010173
0.307006 -0.0359466 0.0197555
0.335738 -0.0176573 0.0293382
0.364471 0.000631899 0.0389207
0.393203 0.0189212 0.0485033
0.421936 0.0372105 0.0580859
0.450669 0.0554997 0.0676686
0.479401 0.073789 0.0772511
0.508134 0.0920783 0.0868338
0.536866 0.110367 0.0964163
0.565599 0.128657 0.105999
0.594331 0.146946 0.115582
0.623064 0.165235 0.125164
0.669206 0.26327 0.169955
0.735604 0.239181 0.149965
0.802003 0.215092 0.129974
0.868401 0.191003 0.109984
0.934799 0.166914 0.0899936
1.0012 0.142825 0.0700032
0.0351479 0.0880143 0.0349975
0.0601896 0.0970886 0.0407949
0.0852314 0.106163 0.0465923
0.110273 0.115237 0.0523897
0.135315 0.124311 0.0581871
0.160357 0.133386 0.0639846
0.185399 0.14246 0.069782
0.210441 0.151535 0.0755794
0.194097 0.231704 0.102311
0.222023 0.225286 0.103277
0.297174 0.207516 0.105894
0.308023 0.178103 0.126789
0.347546 0.22636 0.117745
0.369858 0.228579 0.120906
0.352251 0.123383 0.158705
0.414127 0.232133 0.126933
0.433642 0.227359 0.127255
0.4591 0.237451 0.133549
0.481411 0.239669 0.13671
0.503721 0.241887 0.139871
0.526032 0.244105 0.143032
0.548342 0.246323 0.146192
0.570654 0.248542 0.149353
0.592964 0.25076 0.152514
0.615275 0.252978 0.155675
0.637586 0.255196 0.158836
0.664547 0.269053 0.166647
0.685519 0.267919 0.168469
-0.285409 0.532721 0.53078
-0.0907222 0.45782 0.456086
0.103965 0.382918 0.381392
0.298653 0.308016 0.306698
0.493341 0.233115 0.232004
0.065038 0.160572 0.0805771
0.0905298 0.1645 0.0794788
0.116022 0.168429 0.0783804
0.141514 0.172357 0.077282
0.149935 0.160793 0.0732926
0.174977 0.169868 0.07909
0.200019 0.178942 0.0848874
0.225061 0.188016 0.0906848
0.211753 0.255826 0.112895
0.23968 0.249407 0.113861
0.307309 0.23288 0.116029
0.321039 0.211251 0.13413
0.348479 0.227042 0.135103
0.369937 0.226453 0.144065
0.369858 0.168621 0.164664
0.426704 0.26361 0.139513
0.452844 0.275416 0.146448
0.477569 0.283675 0.152021
0.502294 0.291933 0.157594
0.517263 0.27578 0.153413
0.540265 0.279727 0.157265
0.565499 0.289259 0.163349
0.58584 0.286549 0.16454
0.611165 0.296311 0.170715
0.633512 0.298618 0.173912
0.656532 0.302611 0.177782
0.679075 0.305411 0.181175
0.701619 0.308211 0.184569
0.724162 0.311011 0.187962
0.753949 0.33194 0.198599
0.771673 0.322679 0.197173
0.789398 0.313418 0.195748
0.807122 0.304157 0.194322
0.0780453 0.192706 0.0970511
0.103537 0.196634 0.0959527
0.129029 0.200562 0.0948543
0.154521 0.20449 0.0937559
0.164555 0.197275 0.088398
0.189597 0.206349 0.0941954
0.214639 0.215424 0.0999929
0.23968 0.224498 0.10579
0.22941 0.279948 0.123478
0.257338 0.273531 0.124445
0.317444 0.258244 0.126164
0.334055 0.244398 0.141471
0.361378 0.259765 0.143631
0.382836 0.259176 0.152593
0.387464 0.213858 0.170622
0.439282 0.295088 0.152093
0.464498 0.304581 0.158102
0.489223 0.31284 0.163675
0.513948 0.321099 0.169247
0.537384 0.326137 0.173534
0.560826 0.331184 0.177826
0.584267 0.336231 0.182117
0.607709 0.341278 0.186408
0.63115 0.346325 0.1907
0.650561 0.341287 0.190961
0.676479 0.352532 0.197729
0.698795 0.354764 0.200896
0.721112 0.356996 0.204062
0.743428 0.359228 0.207229
0.765745 0.36146 0.210395
0.788061 0.363692 0.213561
0.810378 0.365924 0.216728
1.06918 0.683957 0.957845
0.0844768 0.222491 0.0886633
0.116334 0.227752 0.0939246
0.148191 0.233013 0.0991859
0.154133 0.224683 0.0977061
0.179175 0.233757 0.103503
0.204217 0.242831 0.109301
0.229259 0.251906 0.115098
0.2543 0.26098 0.120896
0.247067 0.30407 0.134062
0.274995 0.297654 0.135029
0.327579 0.283608 0.136298
0.347071 0.277546 0.148811
0.374277 0.292488 0.152158
0.395734 0.291899 0.16112
0.405071 0.259097 0.176581
0.45186 0.326565 0.164673
0.476152 0.333747 0.169756
0.500877 0.342006 0.175329
0.525601 0.350265 0.180901
0.54904 0.355305 0.18519
0.572481 0.360352 0.189481
0.595922 0.365399 0.193772
0.619364 0.370446 0.198063
0.642805 0.375493 0.202355
0.654741 0.351745 0.195141
0.680875 0.363532 0.202125
0.707009 0.375319 0.20911
0.733144 0.387106 0.216094
0.759278 0.398893 0.223079
0.785413 0.410681 0.230063
0.811548 0.422468 0.237047
1.03239 0.676772 0.88339
1.06652 0.696112 0.921005
0.104248 0.257184 0.133392
0.129158 0.261003 0.131955
0.154068 0.264821 0.130519
0.178978 0.268641 0.129083
0.203888 0.27246 0.127647
0.228798 0.276278 0.126211
0.253708 0.280097 0.124774
0.236795 0.334612 0.14368
0.264724 0.328194 0.144647
0.292651 0.321777 0.145613
0.337714 0.308972 0.146433
0.360088 0.310694 0.156152
0.387176 0.32521 0.160686
0.408633 0.324621 0.169648
0.422677 0.304334 0.182539
0.445686 0.307892 0.190425
0.487904 0.363158 0.181504
0.512439 0.370942 0.186889
0.536974 0.378726 0.192273
0.561508 0.38651 0.197658
0.586043 0.394293 0.203043
0.610541 0.401983 0.208389
0.634034 0.407158 0.212732
0.657527 0.412333 0.217075
0.681019 0.417508 0.221417
0.704511 0.422683 0.22576
0.728003 0.427859 0.230102
0.751496 0.433034 0.234445
0.774988 0.438209 0.238787
0.79848 0.443384 0.24313
0.821972 0.448559 0.247473
0.845097 0.452813 0.251447
0.868027 0.456579 0.255227
0.114457 0.286807 0.110871
0.17488 0.288943 0.121986
0.193705 0.293541 0.125627
0.212529 0.298138 0.129269
0.231353 0.302735 0.13291
0.250177 0.307332 0.136551
0.269001 0.311929 0.140192
0.287825 0.316526 0.143833
0.306649 0.321123 0.147475
0.325473 0.32572 0.151116
0.344297 0.330317 0.154757
0.373606 0.345183 0.163155
0.400075 0.357933 0.169213
0.421532 0.357344 0.178175
0.440284 0.349572 0.188498
0.463292 0.35313 0.196383
0.49946 0.392078 0.193064
0.524184 0.400337 0.198636
0.548909 0.408596 0.204209
0.535614 0.321718 0.17177
0.56419 0.339613 0.181193
0.592764 0.357504 0.190617
0.621338 0.375399 0.200042
0.64991 0.393291 0.209466
0.678488 0.411184 0.21889
0.707062 0.429078 0.228315
0.735636 0.44697 0.237738
0.76421 0.464864 0.247162
0.792786 0.482758 0.256587
0.82136 0.500649 0.266012
0.849935 0.518544 0.275436
0.878509 0.536436 0.28486
0.907083 0.554329 0.294284
0.155939 0.324771 0.153276
0.176535 0.328046 0.154296
0.19713 0.331321 0.155317
0.217725 0.334595 0.156337
0.23832 0.33787 0.157358
0.258915 0.341145 0.158379
0.27951 0.34442 0.159399
0.300105 0.347695 0.16042
0.321584 0.350233 0.159446
0.340409 0.35483 0.163087
0.359233 0.359427 0.166728
0.405284 0.424525 0.193674
0.412974 0.390655 0.17774
0.434431 0.390066 0.186703
0.45789 0.39481 0.194456
0.480899 0.398368 0.202342
0.511113 0.421243 0.204718
0.535838 0.429502 0.21029
0.560563 0.437761 0.215863
0.546206 0.348227 0.182361
0.57478 0.366119 0.191785
0.603354 0.384012 0.201209
0.631929 0.401907 0.210633
0.660503 0.419798 0.220058
0.689079 0.437693 0.229482
0.717654 0.455585 0.238906
0.746228 0.473479 0.248331
0.774802 0.491372 0.257755
0.803376 0.509265 0.267179
0.831951 0.527158 0.276603
0.860526 0.545051 0.286028
0.889101 0.562944 0.295452
0.917675 0.580838 0.304876
0.140186 0.350837 0.140186
0.171363 0.355995 0.145334
0.21556 0.3633 0.152636
0.259757 0.370595 0.159937
0.303951 0.377894 0.167231
0.318843 0.380346 0.169692
0.35507 0.386326 0.175673
0.299551 0.377159 0.166506
0.322768 0.380993 0.170341
0.374205 0.389486 0.178835
0.409053 0.39524 0.18459
0.404178 0.394435 0.183794
0.426755 0.398161 0.187523
0.449332 0.40189 0.191251
0.471911 0.405621 0.19498
0.485975 0.409932 0.218722
0.52314 0.45134 0.216741
0.548213 0.460469 0.222663
0.573285 0.469598 0.228585
0.598357 0.478727 0.234508
0.623429 0.487856 0.24043
0.648502 0.496985 0.246352
0.673574 0.506114 0.252275
0.698647 0.515243 0.258197
0.72372 0.524372 0.26412
0.748792 0.533502 0.270042
0.773864 0.54263 0.275964
0.798936 0.551759 0.281887
0.824009 0.560888 0.287809
0.693714 0.442119 0.231556
0.710565 0.444891 0.234336
0.908126 0.610552 0.314476
0.928268 0.607346 0.315468
0.0859752 0.377439 0.25043
0.120636 0.382408 0.241927
0.155298 0.387377 0.233425
0.18996 0.392345 0.224923
0.272233 0.402434 0.172634
0.303879 0.407661 0.177861
0.335523 0.412887 0.183087
0.367168 0.418113 0.188314
0.355247 0.416261 0.188539
0.374089 0.419352 0.191275
0.386849 0.421706 0.198016
0.419937 0.426825 0.197035
0.442514 0.430553 0.200765
0.465093 0.434284 0.204493
0.487673 0.438014 0.208223
0.498393 0.441544 0.225826
0.534039 0.478616 0.227639
0.559111 0.487745 0.233562
0.584183 0.496874 0.239484
0.609257 0.506003 0.245407
0.634328 0.515132 0.251329
0.659401 0.524261 0.257251
0.684473 0.53339 0.263174
0.709546 0.542519 0.269096
0.734618 0.551648 0.275018
0.75969 0.560777 0.280941
0.784763 0.569906 0.286863
0.809835 0.579035 0.292785
0.834908 0.588164 0.298708
0.712666 0.475045 0.245328
0.729519 0.477821 0.248108
0.918207 0.635782 0.324558
0.93886 0.633853 0.32606
0.165498 0.414282 0.159658
0.194305 0.419188 0.167242
0.223112 0.424094 0.174826
0.279207 0.433385 0.184424
0.284829 0.434304 0.185354
0.316474 0.43953 0.190581
0.348118 0.444756 0.195807
0.379763 0.449983 0.201033
0.363923 0.447366 0.198416
0.438593 0.459698 0.210748
0.399865 0.453894 0.215486
0.435697 0.459219 0.210278
0.458275 0.462948 0.214006
0.480854 0.466678 0.217736
0.503431 0.470405 0.221464
0.51081 0.473156 0.232931
0.529891 0.474776 0.225826
0.549575 0.478026 0.229077
0.595082 0.524149 0.250382
0.620154 0.533278 0.256305
0.645227 0.542408 0.262227
0.670299 0.551537 0.26815
0.695372 0.560666 0.274072
0.720444 0.569795 0.279994
0.745516 0.578924 0.285917
0.770589 0.588053 0.291839
0.795662 0.597182 0.297762
0.820734 0.606311 0.303684
0.845806 0.61544 0.309606
0.731619 0.507974 0.259101
0.748472 0.510749 0.261881
0.928287 0.661009 0.334638
0.949451 0.660362 0.336652
0.178419 0.446519 0.178419
0.200543 0.450186 0.182075
0.244737 0.457478 0.189371
0.288935 0.464785 0.196672
0.297425 0.466173 0.198074
0.32907 0.4714 0.2033
0.360714 0.476626 0.208526
0.392359 0.481853 0.213753
0.380744 0.479934 0.211834
0.405208 0.484229 0.22068
0.432627 0.488503 0.220404
0.451458 0.49161 0.22352
0.474035 0.495338 0.227248
0.496614 0.499069 0.230977
0.519193 0.502798 0.234706
0.527002 0.504088 0.235989
0.546686 0.507339 0.23924
0.56637 0.51059 0.242491
0.605981 0.551426 0.261281
0.631053 0.560555 0.267204
0.656126 0.569684 0.273126
0.681199 0.578813 0.279049
0.70627 0.587942 0.284971
0.731343 0.597071 0.290893
0.756415 0.6062 0.296815
0.781487 0.615329 0.302738
0.80656 0.624458 0.30866
0.831632 0.633587 0.314583
0.856705 0.642716 0.320505
0.750574 0.540901 0.272872
0.767428 0.543675 0.275654
0.938368 0.686237 0.344718
0.960045 0.68687 0.347245
0.207213 0.482181 0.214854
0.232586 0.486217 0.216132
0.257959 0.490254 0.217409
0.283332 0.494289 0.218686
0.31002 0.498044 0.210793
0.341665 0.50327 0.21602
0.37331 0.508496 0.221246
0.404954 0.513722 0.226473
0.397566 0.512501 0.225251
0.418106 0.51632 0.236664
0.442521 0.519927 0.232676
0.467218 0.524004 0.236762
0.489796 0.527731 0.24049
0.512374 0.53146 0.244219
0.534952 0.53519 0.247948
0.543797 0.536652 0.249402
0.563482 0.539903 0.252653
0.583165 0.543153 0.255904
0.616879 0.578702 0.27218
0.641952 0.587831 0.278102
0.667024 0.59696 0.284024
0.692096 0.606089 0.289947
0.717169 0.615218 0.295869
0.742241 0.624347 0.301792
0.767314 0.633476 0.307714
0.792387 0.642605 0.313636
0.817459 0.651734 0.319559
0.842531 0.660863 0.325481
0.867603 0.669992 0.331404
0.769529 0.573829 0.286646
0.786381 0.576604 0.289427
0.948449 0.711464 0.354799
0.970637 0.713378 0.357837
0.222787 0.513415 0.206802
0.248631 0.517683 0.211081
0.274475 0.521952 0.21536
0.300319 0.526221 0.219639
0.322616 0.529914 0.223513
0.354261 0.535139 0.228739
0.385906 0.540366 0.233966
0.41755 0.545592 0.239192
0.422517 0.546413 0.240037
0.444432 0.550033 0.243659
0.467286 0.553807 0.247436
0.482978 0.556396 0.250004
0.505556 0.560125 0.253732
0.519542 0.562436 0.256036
0.550713 0.567583 0.26119
0.560593 0.569215 0.262815
0.580276 0.572466 0.266066
0.599961 0.575716 0.269317
0.627778 0.605977 0.283078
0.65285 0.615107 0.289001
0.677924 0.624236 0.294923
0.702996 0.633365 0.300846
0.728067 0.642494 0.306768
0.753141 0.651623 0.31269
0.778212 0.660752 0.318613
0.803285 0.669881 0.324535
0.828358 0.67901 0.330458
0.85343 0.688139 0.33638
0.878502 0.697268 0.342302
0.788482 0.606754 0.300418
0.805336 0.609532 0.303199
0.95853 0.736692 0.364879
0.981229 0.739886 0.368429
0.216652 0.542202 0.216652
0.284191 0.553355 0.227796
0.306107 0.556975 0.231418
0.328023 0.560595 0.235039
0.335212 0.561783 0.236233
0.366856 0.567009 0.241459
0.398501 0.572235 0.246685
0.430146 0.577461 0.251912
0.437602 0.578693 0.253149
0.459518 0.582313 0.256771
0.47923 0.585568 0.260018
0.498738 0.588789 0.263246
0.521316 0.592516 0.266973
0.537511 0.595193 0.269643
0.566473 0.599975 0.274432
0.577388 0.601778 0.276229
0.597072 0.605029 0.27948
0.616756 0.60828 0.28273
0.638677 0.633254 0.293977
0.663749 0.642382 0.299899
0.688822 0.651512 0.305822
0.713895 0.660641 0.311744
0.738966 0.66977 0.317667
0.764039 0.678899 0.323589
0.789111 0.688028 0.329511
0.814184 0.697157 0.335434
0.839256 0.706285 0.341356
0.864329 0.715415 0.347278
0.889401 0.724544 0.353201
0.807437 0.639683 0.314191
0.824292 0.64246 0.316971
0.968609 0.76192 0.374959
0.991821 0.766394 0.379021
0.229396 0.574097 0.229396
0.239447 0.575767 0.231057
0.28364 0.583065 0.238355
0.327837 0.590366 0.245654
0.347807 0.593652 0.248952
0.379452 0.598879 0.254179
0.411097 0.604105 0.259405
0.442741 0.609331 0.264632
0.448029 0.610204 0.265504
0.492413 0.617534 0.272834
0.495283 0.618008 0.273309
0.514499 0.621181 0.276488
0.537076 0.624909 0.280216
0.555481 0.62795 0.28325
0.582234 0.632368 0.287673
0.594183 0.634342 0.289642
0.613867 0.637593 0.292893
0.633551 0.640843 0.296144
0.649576 0.660529 0.304875
0.674649 0.669659 0.310798
0.69972 0.678788 0.31672
0.724793 0.687917 0.322643
0.749865 0.697046 0.328565
0.774937 0.706175 0.334487
0.80001 0.715303 0.34041
0.825082 0.724433 0.346332
0.850155 0.733562 0.352255
0.875227 0.742691 0.358177
0.900299 0.751819 0.364099
0.826392 0.672611 0.327963
0.843247 0.675387 0.330745
0.97869 0.787149 0.38504
1.00241 0.792902 0.389613
0.24214 0.605991 0.24214
0.249172 0.607159 0.243302
0.293368 0.614457 0.250602
0.337563 0.621756 0.2579
0.360403 0.625522 0.261672
0.392048 0.630749 0.266898
0.423692 0.635975 0.272125
0.455337 0.641201 0.277351
0.46485 0.642772 0.278922
0.503177 0.649102 0.285252
0.510946 0.650385 0.286535
0.530258 0.653573 0.289729
0.552838 0.657302 0.293458
0.575414 0.66103 0.297187
0.597993 0.66476 0.300915
0.610978 0.666905 0.303055
0.630662 0.670156 0.306306
0.650346 0.673407 0.309557
0.652087 0.666828 0.307394
0.678257 0.6787 0.314412
0.704427 0.69057 0.321429
0.730597 0.702441 0.328447
0.756768 0.714312 0.335465
0.782938 0.726184 0.342483
0.779301 0.709301 0.336069
0.799867 0.715952 0.340628
0.820434 0.722602 0.345187
0.811639 0.699986 0.336173
0.828492 0.702761 0.338955
0.845346 0.705538 0.341736
0.8622 0.708315 0.344517
0.98877 0.812376 0.39512
1.01301 0.81941 0.400205
0.254884 0.637885 0.254884
0.258898 0.638554 0.255549
0.303094 0.645853 0.262847
0.34729 0.653153 0.270146
0.372998 0.657392 0.274392
0.404643 0.662618 0.279618
0.436288 0.667844 0.284844
0.467932 0.67307 0.290071
0.481671 0.675339 0.292339
0.513941 0.680669 0.297669
0.52661 0.682761 0.299762
0.546018 0.685966 0.302971
0.568597 0.689694 0.3067
0.591175 0.693424 0.310428
0.613753 0.697152 0.314157
0.627773 0.699468 0.316469
0.647457 0.702719 0.319719
0.667142 0.70597 0.32297
0.661701 0.69089 0.317008
0.687872 0.702762 0.324027
0.714043 0.714633 0.331045
0.740213 0.726504 0.338063
0.766383 0.738375 0.34508
0.792553 0.750246 0.352098
0.796102 0.740104 0.348854
0.816669 0.746754 0.353413
0.837235 0.753405 0.357971
0.830596 0.732916 0.349946
0.847449 0.735691 0.352727
0.864301 0.738465 0.355509
0.881154 0.741241 0.35829
0.998851 0.837604 0.405201
1.0236 0.845918 0.410797
0.267629 0.669779 0.267629
0.268622 0.669948 0.267793
0.312819 0.677248 0.275092
0.357015 0.684546 0.282391
0.385594 0.689262 0.287111
0.417239 0.694488 0.292338
0.448883 0.699714 0.297564
0.480528 0.70494 0.30279
0.498493 0.707907 0.305757
0.524705 0.712236 0.310086
0.542274 0.715138 0.312988
0.561779 0.718358 0.316212
0.584358 0.722087 0.319942
0.606936 0.725816 0.323671
0.629514 0.729545 0.327399
0.644568 0.732032 0.329882
0.664253 0.735282 0.333133
0.683937 0.738533 0.336384
0.698159 0.740883 0.338733
0.71541 0.743732 0.341582
0.730637 0.744305 0.343404
0.751204 0.750955 0.347962
0.77177 0.757606 0.352521
0.792337 0.764256 0.35708
0.812903 0.770906 0.361639
0.83347 0.777557 0.366197
0.854036 0.784207 0.370756
0.849548 0.765843 0.363719
0.866401 0.768617 0.3665
0.883255 0.771395 0.369281
0.90011 0.77417 0.372063
1.00893 0.862833 0.415282
1.03419 0.872427 0.421389
0.280373 0.701673 0.280373
0.278349 0.701344 0.28004
0.322545 0.708641 0.287338
0.366741 0.715942 0.294637
0.39819 0.721131 0.299831
0.429834 0.726358 0.305057
0.461479 0.731584 0.310284
0.493124 0.73681 0.31551
0.513888 0.740239 0.318939
0.535469 0.743803 0.322503
0.557938 0.747514 0.326214
0.577539 0.75075 0.329455
0.600118 0.754479 0.333183
0.622696 0.758209 0.336912
0.645274 0.761938 0.340641
0.661364 0.764595 0.343295
0.681048 0.767846 0.346546
0.700732 0.771097 0.349797
0.706305 0.761807 0.347071
0.726872 0.768457 0.35163
0.747438 0.775108 0.356188
0.768005 0.781758 0.360747
0.788571 0.788408 0.365306
0.809138 0.795059 0.369865
0.829704 0.801709 0.374424
0.850271 0.80836 0.378982
0.870837 0.81501 0.383541
0.868503 0.798769 0.377492
0.885356 0.801546 0.380273
0.90221 0.804322 0.383054
0.919064 0.807098 0.385836
1.01901 0.88806 0.425362
1.04478 0.898935 0.431982
0.462808 0.742146 0.462808
0.288075 0.73274 0.292285
0.332272 0.740039 0.299584
0.376469 0.747339 0.306883
0.410785 0.753001 0.31255
0.44243 0.758227 0.317777
0.474075 0.763453 0.323003
0.505719 0.76868 0.32823
0.526949 0.772186 0.331736
0.550251 0.776034 0.335584
0.573601 0.779891 0.33944
0.593299 0.783143 0.342697
0.615878 0.786872 0.346425
0.638456 0.7906 0.350154
0.661034 0.79433 0.353883
0.678159 0.797158 0.356708
0.697843 0.800409 0.359959
0.717527 0.80366 0.36321
0.723107 0.792609 0.359856
0.743673 0.79926 0.364415
0.76424 0.80591 0.368973
0.784806 0.812561 0.373532
0.805373 0.819211 0.378091
0.825939 0.825861 0.382649
0.846506 0.832512 0.387208
0.867072 0.839162 0.391767
0.887639 0.845812 0.396326
0.887456 0.831697 0.391264
0.904311 0.834475 0.394046
0.921164 0.83725 0.396826
0.938018 0.840025 0.399608
1.02909 0.913288 0.435443
1.05464 0.923596 0.441836
0.411385 0.770796 0.411385
0.2978 0.764134 0.304531
0.341998 0.771434 0.31183
0.386194 0.778733 0.319129
0.423381 0.784871 0.32527
0.455026 0.790097 0.330496
0.48667 0.795323 0.335723
0.518315 0.800549 0.340949
0.517772 0.800461 0.340859
0.565914 0.80841 0.34881
0.589265 0.812267 0.352667
0.60906 0.815536 0.355939
0.631638 0.819264 0.359667
0.654216 0.822994 0.363396
0.676794 0.826722 0.367125
0.694954 0.829722 0.370122
0.714638 0.832973 0.373373
0.734322 0.836223 0.376623
0.739908 0.823412 0.372641
0.760474 0.830062 0.377199
0.781041 0.836713 0.381758
0.801607 0.843363 0.386317
0.822174 0.850013 0.390875
0.84274 0.856664 0.395434
0.863307 0.863314 0.399993
0.883873 0.869965 0.404552
0.90444 0.876615 0.40911
0.906412 0.864625 0.405037
0.923266 0.867401 0.407818
0.940118 0.870177 0.410599
0.956972 0.872954 0.41338
1.03917 0.938516 0.445523
1.02129 0.902756 0.294722
0.359962 0.799447 0.359962
0.307527 0.79553 0.316777
0.351722 0.802829 0.324075
0.395921 0.810129 0.331375
0.440117 0.817429 0.338674
0.472074 0.822702 0.343951
0.508301 0.828685 0.349934
0.509556 0.828893 0.350142
0.532773 0.832727 0.353976
0.579675 0.840472 0.361722
0.605783 0.844784 0.366034
0.62482 0.847928 0.36918
0.647398 0.851656 0.372909
0.669976 0.855386 0.376638
0.692555 0.859115 0.380367
0.711749 0.862285 0.383535
0.731433 0.865536 0.386786
0.751118 0.868787 0.390037
0.773685 0.87257 0.393779
0.790541 0.875343 0.396562
0.807394 0.878119 0.399342
0.824244 0.880895 0.402122
0.8411 0.883674 0.404904
0.857953 0.886447 0.407684
0.874805 0.889224 0.410467
0.891659 0.892001 0.413247
0.908514 0.894778 0.416028
0.925368 0.897553 0.41881
0.942221 0.900329 0.42159
0.959073 0.903105 0.424372
0.975927 0.905881 0.427153
0.984494 0.895571 0.220267
1.01863 0.914911 0.257882
0.308539 0.828097 0.308539
0.317253 0.826927 0.329023
0.361449 0.834224 0.336321
0.405646 0.841524 0.34362
0.449843 0.848823 0.350919
0.483019 0.8543 0.356398
0.519246 0.860283 0.362381
0.524556 0.861159 0.363258
0.547773 0.864994 0.367093
0.594351 0.872686 0.374786
0.619835 0.876894 0.378994
0.64058 0.88032 0.382422
0.663158 0.884049 0.386151
0.685736 0.887778 0.38988
0.708315 0.891507 0.393609
0.728544 0.894848 0.396948
0.748229 0.898099 0.400199
0.767913 0.90135 0.40345
0.792641 0.905495 0.407553
0.809492 0.90827 0.410333
0.826347 0.911048 0.413114
0.843203 0.913826 0.415896
0.860054 0.9166 0.418676
0.876906 0.919375 0.421457
0.893761 0.922153 0.424238
0.910614 0.924929 0.42702
0.927467 0.927705 0.429801
0.944321 0.93048 0.432582
0.961174 0.933256 0.435363
0.978027 0.936032 0.438144
0.994881 0.938809 0.440926
0.981834 0.907727 0.183427
1.01596 0.927067 0.221041
